svgs/thin/star-and-crescent.svg

<svg xmlns="http://www.w3.org/2000/svg" viewBox="0 0 512 512"><!--! Font Awesome Pro 6.3.0 by @fontawesome - https://fontawesome.com License - https://fontawesome.com/license (Commercial License) Copyright 2023 Fonticons, Inc. --><path d="M503.5 213.9l-76.38-11.12L392.9 133.5C391.1 129.9 387.5 128 384 128s-7.125 1.875-9 5.5l-34.13 69.25l-76.38 11.12c-8.125 1.125-11.38 11.25-5.5 17l55.25 53.88l-13 76c-1.125 6.5 4 11.75 9.75 11.75c1.5 0 3.125-.375 4.625-1.25l68.38-35.88l68.25 35.88c1.625 .875 3.125 1.25 4.75 1.25c5.75 0 10.88-5.25 9.75-11.75l-13-76l55.25-53.88C514.9 225.1 511.6 215 503.5 213.9zM436.6 279.2l12.36 72.26l-64.92-34.12l-64.92 34.08l12.36-72.22L278.9 227.9l72.6-10.57l32.44-65.83l32.56 65.83L489.1 227.9L436.6 279.2zM340.5 466.4c-1.5 0-6.875 .5-9.25 .5c-116.3 0-210.8-94.63-210.8-210.9s94.5-210.9 210.8-210.9c2.375 0 7.75 .5 9.25 .5c7.125 0 13.25-5 14.75-12c1.375-7.25-2.625-14.5-9.5-17.12c-29.12-11-59.38-16.5-89.75-16.5c-141.1 0-256 114.9-256 256s114.9 256 256 256c30.25 0 60.25-5.5 89.38-16.38c5.875-2 10.25-7.625 10.25-14.25C355.6 473.4 349.3 466.4 340.5 466.4zM256 496C123.7 496 16 388.3 16 256s107.7-240 240-240c26.44 0 52.6 4.439 77.86 13.21c-1.004-.0508-1.912-.082-2.607-.082C206.2 29.12 104.5 130.9 104.5 256s101.7 226.9 226.8 226.9c.6719 0 1.543-.0293 2.506-.0762C308.3 491.6 282.2 496 256 496z"/></svg>

<svg xmlns="http://www.w3.org/2000/svg" viewBox="0 0 512 512"><!-- Font Awesome Pro 6.0.0-alpha2 by @fontawesome - https://fontawesome.com License - https://fontawesome.com/license (Commercial License) --><path d="M503.502 213.875L427.127 202.75L392.877 133.5C391.127 129.875 387.502 128 384.002 128S376.877 129.875 375.002 133.5L340.877 202.75L264.502 213.875C256.377 215 253.127 225.125 259.002 230.875L314.252 284.75L301.252 360.75C300.127 367.25 305.252 372.5 311.002 372.5C312.502 372.5 314.127 372.125 315.627 371.25L384.002 335.375L452.252 371.25C453.877 372.125 455.377 372.5 457.002 372.5C462.752 372.5 467.877 367.25 466.752 360.75L453.752 284.75L509.004 230.875C514.879 225.125 511.629 215 503.502 213.875ZM436.564 279.162L448.926 351.426L384.01 317.303L319.086 351.381L331.441 279.162L278.914 227.943L351.51 217.371L383.949 151.537L416.51 217.371L489.09 227.943L436.564 279.162ZM340.502 466.375C339.002 466.375 333.627 466.875 331.252 466.875C215.002 466.875 120.502 372.25 120.502 256S215.002 45.125 331.252 45.125C333.627 45.125 339.002 45.625 340.502 45.625C347.627 45.625 353.752 40.625 355.252 33.625C356.627 26.375 352.627 19.125 345.752 16.5C316.627 5.5 286.377 0 256.002 0C114.877 0 0 114.875 0 256S114.877 512 256.002 512C286.252 512 316.252 506.5 345.377 495.625C351.252 493.625 355.627 488 355.627 481.375C355.627 473.375 349.252 466.375 340.502 466.375ZM256.002 496C123.664 496 16 388.336 16 256S123.664 16 256.002 16C282.445 16 308.604 20.439 333.859 29.207C332.855 29.156 331.947 29.125 331.252 29.125C206.221 29.125 104.502 130.9 104.502 256S206.221 482.875 331.252 482.875C331.924 482.875 332.795 482.846 333.758 482.799C308.34 491.561 282.215 496 256.002 496Z"/></svg>
